src/pos-icons/credit-card-scan-outline.svg

<svg height="24" viewBox="0 0 24 24" width="24" xmlns="http://www.w3.org/2000/svg"><path d="m2 4h4v-2h-4a2 2 0 0 0 -2 2v4h2zm20-2h-4v2h4v4h2v-4a2 2 0 0 0 -2-2m-20 14h-2v4a2 2 0 0 0 2 2h4v-2h-4zm20 4h-4v2h4a2 2 0 0 0 2-2v-4h-2zm-18-12v8a2 2 0 0 0 2 2h12a2 2 0 0 0 2-2v-8a2 2 0 0 0 -2-2h-12a2 2 0 0 0 -2 2m2 8v-4h12v4zm12-8v2h-12v-2z"/></svg>

<?xml version="1.0" encoding="UTF-8"?><!DOCTYPE svg PUBLIC "-//W3C//DTD SVG 1.1//EN" "http://www.w3.org/Graphics/SVG/1.1/DTD/svg11.dtd"><svg xmlns="http://www.w3.org/2000/svg" xmlns:xlink="http://www.w3.org/1999/xlink" version="1.1" id="mdi-credit-card-scan-outline" width="24" height="24" viewBox="0 0 24 24"><path d="M2,4H6V2H2A2,2 0 0,0 0,4V8H2V4M22,2H18V4H22V8H24V4A2,2 0 0,0 22,2M2,16H0V20A2,2 0 0,0 2,22H6V20H2V16M22,20H18V22H22A2,2 0 0,0 24,20V16H22V20M4,8V16A2,2 0 0,0 6,18H18A2,2 0 0,0 20,16V8A2,2 0 0,0 18,6H6A2,2 0 0,0 4,8M6,16V12H18V16H6M18,8V10H6V8H18Z" /></svg>
